X:67
T:Miss Bowlbey's Allemand. THO5.067
R:Allemand
M:2/4
L:1/8
B:Thompson's Complete Collection of 200 Favourite Dances Vol.5
F:https://www.libraryofdance.org/manuals/1780c-Thompson-Compleat-5.pdf
Z:vmp. Peter Dunk 2024
Q:1/4=120
K:A
A2 A>E|c2 c>A|B>dBG|(A/G/A/B/) AE|A2 A>E|c2 c>A|d>BAG|A2-A2:|
|:e>fed|cdcd|e>fed|cd e2|e>fed|cdcd|e>fed|(c2B2)|
A2 A>E|c2 c>A|B>dBG|(A/G/A/B/) AE|A2 A>E|c2 c>A|d>BAG|(A2 A2):|
W:
W:The 1st Gent turn the 2nd Lady ./.
W:First Lady turns the 2nd Gent ./:
W:Lesd down the middle, up again, cast off and turn your Partner :/.
W:Lead outsides :/:

